!!!ONB: MCCC : IJB0067_02 : Extracted Monophonic Melody
!!!COM: Bach, Johann Sebastian
!!!OPR: Cello Suite No.5
!!!OMV: 2
!!!SCT: BWV 1011
!!!ODT: 1717///
**kern
*thru
*staff1
*IP1
*clefF4
*k[b-e-a-]
*c:
*M4/4
*>A
8d
=1
[4d
16d]
16c
16B-
16A
8.B-
16F
8.G
16D
=2
[4E-
16E-]
16BB-
16AA-
16GG
8.AA-
16FF
8.GG
16D
=3
[8D
16D]
32C
32BB
8.C
16G
8.AA-
16G
16F
16E-
16D
16C
=4
8.BB
16AA-
16GG
16BB
16D
16F
8.B-
16A
16F
16E-
16F
16D
=5
8.E-
16D
16C
16BB
16C
16D
16E-
16D
16E-
16F
16G
16F
16G
16B-
=6
[4c
16c]
16B-
16A
16F
8.G
32F
32E-
8.e-
16c
=7
[4d
16d]
16c
16B-
16A
8.B-
16d
8.E
16F
=8
[4G
16G]
16F
16E
32F
32G
8.C
16c
8.B-
32c
32A
=9
[4B-
8B-]
16d
16c
16B-
16A
16F
16E-
16D
16E-
16F
16D
=10
[4AA-
16AA-]
16F
16E-
16D
16C
16BB-
16AA-
16GG
16FF
16GG
16AA-
16FF
=11
[4B-
16B-]
16A
16B-
16F
[4e
16e]
16d
16e
16c
=12
[4g
16g]
16f
16e
16d
8.c
16G
8.A-
16g
=13
[8G
32G]
32A-
32G
32F
8.G
16A-
4G
8.F
32E-
32D
=14
4E-
8.CC
16c
4B
16A
16F#
8A
=15
[4e
16e]
16E-
16D
16C
8.BB-
16C
16D
16E
16F#
16A
=16
16B
16A
16F#
16A
16B
16c
16d
16e
8.f
32e
32d
8.e
16F#
=17
4A
16C
16B
16A
16B
4.B
8A
=18
8.G
16D
8.BB
16D
4.GG
*>A
8d
=1
[4d
16d]
16c
16B-
16A
8.B-
16F
8.G
16D
=2
[4E-
16E-]
16BB-
16AA-
16GG
8.AA-
16FF
8.GG
16D
=3
[8D
16D]
32C
32BB
8.C
16G
8.AA-
16G
16F
16E-
16D
16C
=4
8.BB
16AA-
16GG
16BB
16D
16F
8.B-
16A
16F
16E-
16F
16D
=5
8.E-
16D
16C
16BB
16C
16D
16E-
16D
16E-
16F
16G
16F
16G
16B-
=6
[4c
16c]
16B-
16A
16F
8.G
32F
32E-
8.e-
16c
=7
[4d
16d]
16c
16B-
16A
8.B-
16d
8.E
16F
=8
[4G
16G]
16F
16E
32F
32G
8.C
16c
8.B-
32c
32A
=9
[4B-
8B-]
16d
16c
16B-
16A
16F
16E-
16D
16E-
16F
16D
=10
[4AA-
16AA-]
16F
16E-
16D
16C
16BB-
16AA-
16GG
16FF
16GG
16AA-
16FF
=11
[4B-
16B-]
16A
16B-
16F
[4e
16e]
16d
16e
16c
=12
[4g
16g]
16f
16e
16d
8.c
16G
8.A-
16g
=13
[8G
32G]
32A-
32G
32F
8.G
16A-
4G
8.F
32E-
32D
=14
4E-
8.CC
16c
4B
16A
16F#
8A
=15
[4e
16e]
16E-
16D
16C
8.BB-
16C
16D
16E
16F#
16A
=16
16B
16A
16F#
16A
16B
16c
16d
16e
8.f
32e
32d
8.e
16F#
=17
4A
16C
16B
16A
16B
4.B
8A
=18
8.G
16D
8.BB
16D
4.GG
*>B
8e
=19
[4e
16e]
16d
16e
16f
8.c#
16A-
8.G
16F
=20
8.E-
16A
16d
16D
16E-
16F
8.BB
16A
8.e
32f
32g
=21
4f
8.CC
16e
8.d
32c
32B
8.c
16d
=22
[4B
16B]
16B
16c
16d
8.F
32A
32B
8.B
32A
32B
=23
4c
16DD
16c
16B-
16A
8.F
16E-
8.F
16A
=24
[4B-
16B-]
16C
16D
16E-
4B-
8.E-
16F
=25
4B-
8C
16D
16BB-
[8A
32A]
32F
32E-
32D
8.E-
16G
=26
[8DD-
32DD-]
32GG
32AA-
32BB-
16C
16BB-
8A-
4G
16F
16E
8F
=27
[4E
16E]
16BB-
16AA-
16GG
8.AA-
16F
8.G
16A-
=28
8.E
16c
8B-
16c
16A
4.G
8F
=29
[4F
16F]
16F
16E-
16D
8.E-
16d
16c
16B
16A
16F
=30
8.c
32B-
32A
8.F
16A
8.B-
16A
16F
16E-
16D
32E-
32F
=31
8.BB
16A
8e
32f
32e
32d
32e
8.f
16C
8.GG
32AA-
32BB-
=32
8.AA-
16G
8.F
16f
8.e
16d
16e
16c#
8d
=33
8.c#
16G
16A-
16G
16F
16E-
16D
16C
16BB
16C
16D
16E-
16F
16D
=34
8.AA-
16c#
16d
16c#
16B
16A
4.d
8F#
=35
8.G
16f
16e
16f
16g
16e
4.c#
8d
=36
8.d
16A
8.E-
16C
4.d
*>B
8e
=19
[4e
16e]
16d
16e
16f
8.c#
16A-
8.G
16F
=20
8.E-
16A
16d
16D
16E-
16F
8.BB
16A
8.e
32f
32g
=21
4f
8.CC
16e
8.d
32c
32B
8.c
16d
=22
[4B
16B]
16B
16c
16d
8.F
32A
32B
8.B
32A
32B
=23
4c
16DD
16c
16B-
16A
8.F
16E-
8.F
16A
=24
[4B-
16B-]
16C
16D
16E-
4B-
8.E-
16F
=25
4B-
8C
16D
16BB-
[8A
32A]
32F
32E-
32D
8.E-
16G
=26
[8DD-
32DD-]
32GG
32AA-
32BB-
16C
16BB-
8A-
4G
16F
16E
8F
=27
[4E
16E]
16BB-
16AA-
16GG
8.AA-
16F
8.G
16A-
=28
8.E
16c
8B-
16c
16A
4.G
8F
=29
[4F
16F]
16F
16E-
16D
8.E-
16d
16c
16B
16A
16F
=30
8.c
32B-
32A
8.F
16A
8.B-
16A
16F
16E-
16D
32E-
32F
=31
8.BB
16A
8e
32f
32e
32d
32e
8.f
16C
8.GG
32AA-
32BB-
=32
8.AA-
16G
8.F
16f
8.e
16d
16e
16c#
8d
=33
8.c#
16G
16A-
16G
16F
16E-
16D
16C
16BB
16C
16D
16E-
16F
16D
=34
8.AA-
16c#
16d
16c#
16B
16A
4.d
8F#
=35
8.G
16f
16e
16f
16g
16e
4.c#
8d
=36
8.d
16A
8.E-
16C
4.d
==
*-
